Papirus/22x22/panel/ic_dark_enpass.svg

<?xml version="1.0" encoding="UTF-8" standalone="no"?>
<svg xmlns:dc="http://purl.org/dc/elements/1.1/" xmlns:cc="http://creativecommons.org/ns#" xmlns:rdf="http://www.w3.org/1999/02/22-rdf-syntax-ns#" xmlns:svg="http://www.w3.org/2000/svg" xmlns="http://www.w3.org/2000/svg" version="1.0" width="22" height="22" id="svg2817">
    <metadata id="metadata57">
        <rdf:RDF>
            <cc:Work rdf:about="">
                <dc:format>
                    image/svg+xml
                </dc:format>
                <dc:type rdf:resource="http://purl.org/dc/dcmitype/StillImage"/>
                <dc:title/>
            </cc:Work>
        </rdf:RDF>
    </metadata>
    <path id="rect4203-0" d="m 11,3 c -4.432,0 -8,3.568 -8,8 0,4.432 3.568,8 8,8 4.432,0 8,-3.568 8,-8 0,-4.432 -3.568,-8 -8,-8 z m -1.5,4 3,0 C 13.331001,7 14,7.679246 14,8.523438 l 0,0.763671 C 14,10.131299 13.331001,11 12.5,11 l -0.5,0 0,3.238281 C 12,14.660376 11.7905,15 11.375,15 l -0.75,0 C 10.2095,15 10.015379,14.660095 10,14.238281 L 10,11 9.5,11 C 8.6689996,11 8,10.131299 8,9.287109 L 8,8.523438 C 8,7.679246 8.6689996,7 9.5,7 Z" style="fill:#000000;fill-opacity:1;opacity:0.5"/>
</svg>

<?xml version="1.0" encoding="UTF-8" standalone="no"?>
<svg id="svg2817" xmlns:rdf="http://www.w3.org/1999/02/22-rdf-syntax-ns#" xmlns="http://www.w3.org/2000/svg" height="22" width="22" version="1.0" xmlns:cc="http://creativecommons.org/ns#" xmlns:dc="http://purl.org/dc/elements/1.1/">
 <metadata id="metadata57">
  <rdf:RDF>
   <cc:Work rdf:about="">
    <dc:format>image/svg+xml</dc:format>
    <dc:type rdf:resource="http://purl.org/dc/dcmitype/StillImage"/>
    <dc:title/>
   </cc:Work>
  </rdf:RDF>
 </metadata>
 <path id="rect4203-0" opacity=".5" d="m11 3c-4.432 0-8 3.568-8 8s3.568 8 8 8 8-3.568 8-8-3.568-8-8-8zm-1.5 4h3c0.831 0 1.5 0.6792 1.5 1.5234v0.76367c0 0.8439-0.669 1.7129-1.5 1.7129h-0.5v3.2383c0 0.422-0.21 0.762-0.625 0.762h-0.75c-0.415 0-0.61-0.34-0.625-0.762v-3.238h-0.5c-0.831 0-1.5-0.869-1.5-1.7129v-0.7637c0-0.8442 0.669-1.5234 1.5-1.5234z"/>
</svg>
